actions/24/folder-move.svg

<?xml version="1.0" encoding="UTF-8" standalone="no"?>
<svg
   xmlns:dc="http://purl.org/dc/elements/1.1/"
   xmlns:cc="http://creativecommons.org/ns#"
   xmlns:rdf="http://www.w3.org/1999/02/22-rdf-syntax-ns#"
   xmlns:svg="http://www.w3.org/2000/svg"
   xmlns="http://www.w3.org/2000/svg"
   xmlns:xlink="http://www.w3.org/1999/xlink"
   version="1.0"
   width="24"
   height="24"
   id="svg2">
  <defs
     id="defs4">
    <linearGradient
       id="linearGradient7012-661-145-733-759-865-745-340">
      <stop
         id="stop2650"
         style="stop-color:#bababa;stop-opacity:1"
         offset="0" />
      <stop
         id="stop2652"
         style="stop-color:#838383;stop-opacity:1"
         offset="1" />
    </linearGradient>
    <linearGradient
       id="linearGradient5048-380">
      <stop
         id="stop2630"
         style="stop-color:#000000;stop-opacity:0"
         offset="0" />
      <stop
         id="stop2632"
         style="stop-color:#000000;stop-opacity:1"
         offset="0.5" />
      <stop
         id="stop2634"
         style="stop-color:#000000;stop-opacity:0"
         offset="1" />
    </linearGradient>
    <linearGradient
       id="linearGradient7012-661-145-733-759-865-745">
      <stop
         id="stop2699"
         style="stop-color:#9cbbd9;stop-opacity:1"
         offset="0" />
      <stop
         id="stop2701"
         style="stop-color:#5c82ab;stop-opacity:1"
         offset="1" />
    </linearGradient>
    <linearGradient
       id="linearGradient5048">
      <stop
         id="stop5050"
         style="stop-color:#000000;stop-opacity:0"
         offset="0" />
      <stop
         id="stop5056"
         style="stop-color:#000000;stop-opacity:1"
         offset="0.5" />
      <stop
         id="stop5052"
         style="stop-color:#000000;stop-opacity:0"
         offset="1" />
    </linearGradient>
    <linearGradient
       x1="-51.786404"
       y1="53.514328"
       x2="-51.786404"
       y2="2.0612748"
       id="linearGradient3018"
       xlink:href="#linearGradient3104-8-8-97-4-6-11-5-5-4-4"
       gradientUnits="userSpaceOnUse"
       gradientTransform="matrix(0.31070043,0,0,0.27489387,20.17717,-0.10316268)" />
    <linearGradient
       x1="62.988873"
       y1="11.645091"
       x2="62.988873"
       y2="15.385052"
       id="linearGradient8858"
       xlink:href="#linearGradient4346"
       gradientUnits="userSpaceOnUse"
       gradientTransform="matrix(0.33333327,0,0,0.32971018,-17.44063,-0.64784268)" />
    <linearGradient
       id="linearGradient4346">
      <stop
         id="stop4348"
         style="stop-color:#ffffff;stop-opacity:1"
         offset="0" />
      <stop
         id="stop4350"
         style="stop-color:#d8d8d8;stop-opacity:1"
         offset="1" />
    </linearGradient>
    <linearGradient
       id="linearGradient3104-8-8-97-4-6-11-5-5-4-4">
      <stop
         id="stop3106-5-4-3-5-0-2-1-0-7-7"
         style="stop-color:#000000;stop-opacity:0.32173914"
         offset="0" />
      <stop
         id="stop3108-4-3-7-8-2-0-7-9-0-6"
         style="stop-color:#000000;stop-opacity:0.27826086"
         offset="1" />
    </linearGradient>
    <linearGradient
       x1="-51.786404"
       y1="53.514328"
       x2="-51.786404"
       y2="2.0612748"
       id="linearGradient10473-4-0"
       xlink:href="#linearGradient3104-8-8-97-4-6-11-5-5-4-4"
       gradientUnits="userSpaceOnUse"
       gradientTransform="matrix(0.31070043,0,0,0.27489387,20.17717,-0.10316268)" />
    <linearGradient
       id="linearGradient4632-0-6-4-4">
      <stop
         id="stop4634-4-4-7-5"
         style="stop-color:#b4cee1;stop-opacity:1"
         offset="0" />
      <stop
         id="stop4636-3-1-5-4"
         style="stop-color:#5d9fcd;stop-opacity:1"
         offset="1" />
    </linearGradient>
    <linearGradient
       x1="84.30883"
       y1="16.110577"
       x2="84.30883"
       y2="42.923553"
       id="linearGradient10262-3"
       xlink:href="#linearGradient4632-0-6-4-4"
       gradientUnits="userSpaceOnUse"
       gradientTransform="matrix(0.33333327,0,0,0.34148555,-17.08621,-0.60407268)" />
    <linearGradient
       id="linearGradient6129-963-697-142-998-580-273-44-2-2-2">
      <stop
         id="stop2661-01-6-2-4"
         style="stop-color:#0a0a0a;stop-opacity:0.498"
         offset="0" />
      <stop
         id="stop2663-64-5-5-3"
         style="stop-color:#0a0a0a;stop-opacity:0"
         offset="1" />
    </linearGradient>
    <linearGradient
       x1="76.041"
       y1="49.372032"
       x2="76.041"
       y2="35.430561"
       id="linearGradient10268-4"
       xlink:href="#linearGradient6129-963-697-142-998-580-273-44-2-2-2"
       gradientUnits="userSpaceOnUse"
       gradientTransform="matrix(0.38156409,0,0,0.32896952,-18.24159,0.28216731)" />
    <linearGradient
       id="linearGradient3454-2-5-0-3-8">
      <stop
         id="stop3456-4-9-38-1-9"
         style="stop-color:#ffffff;stop-opacity:1"
         offset="0" />
      <stop
         id="stop3458-39-80-3-5-6"
         style="stop-color:#ffffff;stop-opacity:0.23529412"
         offset="0.0097359" />
      <stop
         id="stop3460-7-0-2-4-4"
         style="stop-color:#ffffff;stop-opacity:0.15686275"
         offset="0.99001008" />
      <stop
         id="stop3462-0-9-8-7-8"
         style="stop-color:#ffffff;stop-opacity:0.39215687"
         offset="1" />
    </linearGradient>
    <linearGradient
       x1="11.350123"
       y1="0.66696572"
       x2="11.350123"
       y2="8.1721792"
       id="linearGradient10270-0"
       xlink:href="#linearGradient3454-2-5-0-3-8"
       gradientUnits="userSpaceOnUse"
       gradientTransform="matrix(0.89189031,0,0,0.94046961,3.14398,5.346537)" />
    <linearGradient
       x1="-51.786404"
       y1="53.514328"
       x2="-51.786404"
       y2="2.0612748"
       id="linearGradient3022"
       xlink:href="#linearGradient3104-8-8-97-4-6-11-5-5-4-4-0"
       gradientUnits="userSpaceOnUse"
       gradientTransform="matrix(0.31070043,0,0,0.27489387,20.17717,-0.10316268)" />
    <linearGradient
       x1="62.988873"
       y1="11.645091"
       x2="62.988873"
       y2="15.385052"
       id="linearGradient8858-6"
       xlink:href="#linearGradient4346-0"
       gradientUnits="userSpaceOnUse"
       gradientTransform="matrix(0.33333327,0,0,0.32971018,-17.44063,-0.64784268)" />
    <linearGradient
       id="linearGradient4346-0">
      <stop
         id="stop4348-9"
         style="stop-color:#ffffff;stop-opacity:1"
         offset="0" />
      <stop
         id="stop4350-5"
         style="stop-color:#d8d8d8;stop-opacity:1"
         offset="1" />
    </linearGradient>
    <linearGradient
       id="linearGradient3104-8-8-97-4-6-11-5-5-4-4-0">
      <stop
         id="stop3106-5-4-3-5-0-2-1-0-7-7-7"
         style="stop-color:#000000;stop-opacity:0.32173914"
         offset="0" />
      <stop
         id="stop3108-4-3-7-8-2-0-7-9-0-6-9"
         style="stop-color:#000000;stop-opacity:0.27826086"
         offset="1" />
    </linearGradient>
    <linearGradient
       x1="-51.786404"
       y1="53.514328"
       x2="-51.786404"
       y2="2.0612748"
       id="linearGradient10473-4-0-6"
       xlink:href="#linearGradient3104-8-8-97-4-6-11-5-5-4-4-0"
       gradientUnits="userSpaceOnUse"
       gradientTransform="matrix(0.31070043,0,0,0.27489387,20.17717,-0.10316268)" />
    <linearGradient
       id="linearGradient4632-0-6-4-4-7">
      <stop
         id="stop4634-4-4-7-5-1"
         style="stop-color:#e9e9e9;stop-opacity:1"
         offset="0" />
      <stop
         id="stop4636-3-1-5-4-6"
         style="stop-color:#b4b4b4;stop-opacity:1"
         offset="1" />
    </linearGradient>
    <linearGradient
       x1="84.30883"
       y1="16.110577"
       x2="84.30883"
       y2="42.923553"
       id="linearGradient10262-3-1"
       xlink:href="#linearGradient4632-0-6-4-4-7"
       gradientUnits="userSpaceOnUse"
       gradientTransform="matrix(0.33333327,0,0,0.34148555,-17.08621,-0.60407268)" />
    <linearGradient
       id="linearGradient6129-963-697-142-998-580-273-44-2-2-2-1">
      <stop
         id="stop2661-01-6-2-4-3"
         style="stop-color:#0a0a0a;stop-opacity:0.498"
         offset="0" />
      <stop
         id="stop2663-64-5-5-3-4"
         style="stop-color:#0a0a0a;stop-opacity:0"
         offset="1" />
    </linearGradient>
    <linearGradient
       x1="76.041"
       y1="49.372032"
       x2="76.041"
       y2="35.430561"
       id="linearGradient10268-4-3"
       xlink:href="#linearGradient6129-963-697-142-998-580-273-44-2-2-2-1"
       gradientUnits="userSpaceOnUse"
       gradientTransform="matrix(0.38156409,0,0,0.32896952,-18.24159,0.28216731)" />
    <linearGradient
       id="linearGradient3454-2-5-0-3-8-2">
      <stop
         id="stop3456-4-9-38-1-9-6"
         style="stop-color:#ffffff;stop-opacity:1"
         offset="0" />
      <stop
         id="stop3458-39-80-3-5-6-4"
         style="stop-color:#ffffff;stop-opacity:0.23529412"
         offset="0.0097359" />
      <stop
         id="stop3460-7-0-2-4-4-8"
         style="stop-color:#ffffff;stop-opacity:0.15686275"
         offset="0.99001008" />
      <stop
         id="stop3462-0-9-8-7-8-0"
         style="stop-color:#ffffff;stop-opacity:0.39215687"
         offset="1" />
    </linearGradient>
    <linearGradient
       x1="11.350123"
       y1="0.66696572"
       x2="11.350123"
       y2="8.1721792"
       id="linearGradient10270-0-4"
       xlink:href="#linearGradient3454-2-5-0-3-8-2"
       gradientUnits="userSpaceOnUse"
       gradientTransform="matrix(0.89189031,0,0,0.94046961,3.14398,5.346537)" />
  </defs>
  <metadata
     id="metadata7">
    <rdf:RDF>
      <cc:Work
         rdf:about="">
        <dc:format>image/svg+xml</dc:format>
        <dc:type
           rdf:resource="http://purl.org/dc/dcmitype/StillImage" />
        <dc:title />
      </cc:Work>
    </rdf:RDF>
  </metadata>
  <g
     id="layer1">
    <path
       d="M 2.1246235,4.1370482 C 1.9440841,4.3543278 2,4.6685409 2,5 L 2,7 C 2,7.554 2.223,8 2.5,8 2.777,8 3,7.554 3,7 L 3,5 4.25,5 C 4.6655,5 5,4.777 5,4.5 5,4.223 4.6655,4 4.25,4 L 2.75,4 C 2.552307,4.0172294 2.305163,3.9197686 2.1246235,4.1370482 z M 7.75,4 C 7.3345,4 7,4.223 7,4.5 7,4.777 7.3345,5 7.75,5 l 1.5,0 C 9.6655,5 10,4.777 10,4.5 10,4.223 9.6655,4 9.25,4 z m 5,0 C 12.3345,4 12,4.223 12,4.5 12,4.777 12.3345,5 12.75,5 l 1.5,0 C 14.6655,5 15,4.777 15,4.5 15,4.223 14.6655,4 14.25,4 z M 17.5,4 C 17.223,4 17,4.223 17,4.5 17,4.777 17.223,5 17.5,5 L 18,5 18,6.25 C 18,6.6655 18.223,7 18.5,7 18.777,7 19,6.6655 19,6.25 18.996686,5.6758465 19,5.0473832 19,4.5 19,4.223 18.777,4 18.5,4 z m 1,5 C 18.223,9 18,10 18,10 l 1,0 c 0,0 -0.223,-1 -0.5,-1 z m -16,1 C 2.223,10 2,10.3345 2,10.75 l 0,1.5 C 2,12.6655 2.223,13 2.5,13 2.777,13 3,12.6655 3,12.25 l 0,-1.5 C 3,10.3345 2.777,10 2.5,10 z m 16,4 C 18.223,14 18,14.446 18,15 l 0,2 -1.25,0 C 16.3345,17 16,17.223 16,17.5 c 0,0.277 0.3345,0.5 0.75,0.5 l 1.5,0 c 0.08107,0 0.145728,-0.01553 0.21875,-0.03125 C 18.482309,17.970938 18.48615,18 18.5,18 18.56925,18 18.627641,17.95672 18.6875,17.90625 18.873584,17.815434 19,17.6662 19,17.5 19,17.454988 18.985328,17.416435 18.96875,17.375 18.993984,17.255281 19,17.1385 19,17 l 0,-2 c 0,-0.554 -0.223,-1 -0.5,-1 z m -16,1 C 2.223,15 2,15.3345 2,15.75 2.00331,16.324154 2,16.952617 2,17.5 2,17.777 2.223,18 2.5,18 l 1,0 C 3.777,18 4,17.777 4,17.5 4,17.223 3.777,17 3.5,17 L 3,17 3,15.75 C 3,15.3345 2.777,15 2.5,15 z m 5.25,2 C 7.3345,17 7,17.223 7,17.5 7,17.777 7.3345,18 7.75,18 l 0.5,0 C 8.6655,18 9,17.777 9,17.5 9,17.223 8.6655,17 8.25,17 z m 4,0 C 11.3345,17 11,17.223 11,17.5 c 0,0.277 0.3345,0.5 0.75,0.5 l 1.5,0 C 13.6655,18 14,17.777 14,17.5 14,17.223 13.6655,17 13.25,17 z"
       id="path3841"
       style="opacity:0.3;fill:#ffffff;fill-opacity:1;stroke:none" />
    <path
       d="M 2.1246235,3.1370482 C 1.9440841,3.3543278 2,3.6685409 2,4 L 2,6 C 2,6.554 2.223,7 2.5,7 2.777,7 3,6.554 3,6 L 3,4 4.25,4 C 4.6655,4 5,3.777 5,3.5 5,3.223 4.6655,3 4.25,3 L 2.75,3 C 2.552307,3.0172294 2.305163,2.9197686 2.1246235,3.1370482 z M 7.75,3 C 7.3345,3 7,3.223 7,3.5 7,3.777 7.3345,4 7.75,4 l 1.5,0 C 9.6655,4 10,3.777 10,3.5 10,3.223 9.6655,3 9.25,3 z m 5,0 C 12.3345,3 12,3.223 12,3.5 12,3.777 12.3345,4 12.75,4 l 1.5,0 C 14.6655,4 15,3.777 15,3.5 15,3.223 14.6655,3 14.25,3 z M 17.5,3 C 17.223,3 17,3.223 17,3.5 17,3.777 17.223,4 17.5,4 L 18,4 18,5.25 C 18,5.6655 18.223,6 18.5,6 18.777,6 19,5.6655 19,5.25 18.996686,4.6758465 19,4.0473832 19,3.5 19,3.223 18.777,3 18.5,3 z m 1,5 C 18.223,8 18,9 18,9 l 1,0 C 19,9 18.777,8 18.5,8 z M 2.5,9 C 2.223,9 2,9.3345 2,9.75 l 0,1.5 C 2,11.6655 2.223,12 2.5,12 2.777,12 3,11.6655 3,11.25 L 3,9.75 C 3,9.3345 2.777,9 2.5,9 z m 16,4 C 18.223,13 18,13.446 18,14 l 0,2 -1.25,0 C 16.3345,16 16,16.223 16,16.5 c 0,0.277 0.3345,0.5 0.75,0.5 l 1.5,0 c 0.08107,0 0.145728,-0.01553 0.21875,-0.03125 C 18.482309,16.970938 18.48615,17 18.5,17 18.56925,17 18.627641,16.95672 18.6875,16.90625 18.873584,16.815434 19,16.6662 19,16.5 19,16.454988 18.985328,16.416435 18.96875,16.375 18.993984,16.255281 19,16.1385 19,16 l 0,-2 c 0,-0.554 -0.223,-1 -0.5,-1 z m -16,1 C 2.223,14 2,14.3345 2,14.75 2.00331,15.324154 2,15.952617 2,16.5 2,16.777 2.223,17 2.5,17 l 1,0 C 3.777,17 4,16.777 4,16.5 4,16.223 3.777,16 3.5,16 L 3,16 3,14.75 C 3,14.3345 2.777,14 2.5,14 z m 5.25,2 C 7.3345,16 7,16.223 7,16.5 7,16.777 7.3345,17 7.75,17 l 0.5,0 C 8.6655,17 9,16.777 9,16.5 9,16.223 8.6655,16 8.25,16 z m 4,0 C 11.3345,16 11,16.223 11,16.5 c 0,0.277 0.3345,0.5 0.75,0.5 l 1.5,0 C 13.6655,17 14,16.777 14,16.5 14,16.223 13.6655,16 13.25,16 z"
       id="rect4043"
       style="opacity:0.5;fill:#000000;fill-opacity:1;stroke:none" />
    <g
       transform="translate(6,6.9961851)"
       id="layer1-8">
      <path
         d="m 2.02332,1.976667 0,1 -1,0 0,4 14,0 0,-4 -7,0 0,-1 -6,0 z"
         id="rect4170-0"
         style="color:#000000;fill:url(#linearGradient8858);fill-opacity:1;fill-rule:nonzero;stroke:none;stroke-width:0.99992168;marker:none;visibility:visible;display:inline;overflow:visible;enable-background:accumulate" />
      <path
         d="m 1.78125,1 c -0.4068514,0 -0.75,0.3431486 -0.75,0.75 l 0,0.21875 -0.25,0 c -0.40685138,0 -0.75,0.3431486 -0.75,0.75 l 0,1.28125 1,0 0,-1.03125 0.5,0 0.5,0 0,-0.5 0,-0.46875 6,0 0,0.46875 0,0.5 0.5,0 6.5,0 0,1.03125 1,0 0,-1.28125 c 0,-0.4068514 -0.343149,-0.75 -0.75,-0.75 l -6.25,0 0,-0.21875 C 9.03125,1.3431486 8.6881014,1 8.28125,1 l -6.5,0 z"
         id="rect4170"
         style="font-size:medium;font-style:normal;font-variant:normal;font-weight:normal;font-stretch:normal;text-indent:0;text-align:start;text-decoration:none;line-height:normal;letter-spacing:normal;word-spacing:normal;text-transform:none;direction:ltr;block-progression:tb;writing-mode:lr-tb;text-anchor:start;baseline-shift:baseline;opacity:0.8;color:#000000;fill:url(#linearGradient3018);fill-opacity:1;stroke:none;stroke-width:1;marker:none;visibility:visible;display:inline;overflow:visible;enable-background:accumulate;font-family:Sans;-inkscape-font-specification:Sans" />
      <path
         d="m 0.55988,4.453367 c 0.75732,0 14.39951,0.0316 14.98675,0.0316 0,0.6186 -0.0285,10.00962 -0.0624,10.00962 -5.26001,0.0178 -13.45265,-0.014 -14.98423,-0.014 0,-1.16748 0.0599,-7.62459 0.0599,-10.02721 z"
         id="rect3086"
         style="color:#000000;fill:url(#linearGradient10262-3);fill-opacity:1;fill-rule:nonzero;stroke:none;stroke-width:1;marker:none;visibility:visible;display:inline;overflow:visible;enable-background:accumulate" />
      <path
         d="m 0.08698,3.976647 c 0.8053,0 15.31189,0.0341 15.93634,0.0341 0,0.67729 -0.0303,10.95971 -0.0663,10.95971 -5.5933,0.02 -14.30504,-0.0148 -15.93366,-0.0148 0,-1.2783 0.0636,-8.34831 0.0636,-10.97898 z"
         id="rect3086-1"
         style="opacity:0.4;color:#000000;fill:url(#linearGradient10268-4);fill-opacity:1;fill-rule:nonzero;stroke:none;stroke-width:1;marker:none;visibility:visible;display:inline;overflow:visible;enable-background:accumulate" />
      <path
         d="m 1.57504,5.476667 c 0.65431,0 12.44092,0.0251 12.94828,0.0251 0,0.49259 -0.0246,7.97055 -0.0539,7.97055 -4.54455,0.0142 -11.62285,-0.0111 -12.9461,-0.0111 0,-0.92965 0.0517,-6.07138 0.0517,-7.98455 z"
         id="rect3086-9"
         style="opacity:0.5;color:#000000;fill:none;stroke:url(#linearGradient10270-0);stroke-width:1.00000012;stroke-linecap:round;stroke-linejoin:miter;stroke-miterlimit:4;stroke-opacity:1;stroke-dasharray:none;stroke-dashoffset:0;marker:none;visibility:visible;display:inline;overflow:visible;enable-background:accumulate" />
      <path
         d="m 0.40625,3.96875 a 0.50005,0.50005 0 0 0 -0.34375,0.5 0.50005,0.50005 0 0 0 0,0.09375 C 0.0613979,7.0088498 0,13.295273 0,14.46875 a 0.50005,0.50005 0 0 0 0.5,0.5 c 1.5214827,0 9.703777,0.04882 14.96875,0.03125 0.01099,-3.7e-5 0.02028,3.7e-5 0.03125,0 0.0012,-7.95e-4 -0.0019,-0.03002 0,-0.03125 0.06056,-0.03863 0.437378,-0.249737 0.4375,-0.25 1.32e-4,-2.86e-4 0.02699,-0.106637 0.03125,-0.125 0.0085,-0.03673 -0.0014,-0.05081 0,-0.0625 C 15.97145,14.50787 15.99919,14.51368 16,14.5 c 0.0016,-0.02736 -0.0011,-0.05688 0,-0.09375 0.0022,-0.07374 -0.002,-0.182299 0,-0.3125 0.0041,-0.260402 -0.0037,-0.616858 0,-1.0625 0.0074,-0.891284 0.02557,-2.099644 0.03125,-3.3125 0.01137,-2.4257122 0,-4.9017714 0,-5.21875 a 0.50005,0.50005 0 0 0 -0.5,-0.5 C 14.961947,4 1.3337287,3.96875 0.5625,3.96875 a 0.50005,0.50005 0 0 0 -0.15625,0 z m 0.65625,1 C 2.5331431,4.97065 13.680989,4.998096 15.03125,5 c -0.0012,0.6360494 0.01027,2.5265847 0,4.71875 C 15.02557,10.930974 15.007429,12.111137 15,13 c -0.0034,0.406338 0.0036,0.748851 0,1 -5.0789999,0.01381 -12.1556038,-0.02935 -14,-0.03125 0.00512,-1.492643 0.057379,-6.4863005 0.0625,-9 z"
         id="rect3086-0"
         style="font-size:medium;font-style:normal;font-variant:normal;font-weight:normal;font-stretch:normal;text-indent:0;text-align:start;text-decoration:none;line-height:normal;letter-spacing:normal;word-spacing:normal;text-transform:none;direction:ltr;block-progression:tb;writing-mode:lr-tb;text-anchor:start;baseline-shift:baseline;opacity:0.3;color:#000000;fill:#000000;fill-opacity:1;stroke:none;stroke-width:1;marker:none;visibility:visible;display:inline;overflow:visible;enable-background:accumulate;font-family:Sans;-inkscape-font-specification:Sans" />
    </g>
  </g>
</svg>

<svg xmlns="http://www.w3.org/2000/svg" xmlns:xlink="http://www.w3.org/1999/xlink" viewBox="0 0 24 24"><defs><linearGradient x1="-51.786" y1="53.514" x2="-51.786" y2="2.061" id="g" xlink:href="#a" gradientUnits="userSpaceOnUse" gradientTransform="matrix(.3107 0 0 .275 20.177 -.103)"/><linearGradient x1="62.989" y1="11.645" x2="62.989" y2="15.385" id="f" xlink:href="#b" gradientUnits="userSpaceOnUse" gradientTransform="matrix(.33333 0 0 .3297 -17.44 -.648)"/><linearGradient id="b"><stop offset="0" stop-color="#fff"/><stop offset="1" stop-color="#d8d8d8"/></linearGradient><linearGradient id="a"><stop offset="0" stop-opacity=".322"/><stop offset="1" stop-opacity=".278"/></linearGradient><linearGradient id="c"><stop offset="0" stop-color="#b4cee1"/><stop offset="1" stop-color="#5d9fcd"/></linearGradient><linearGradient x1="84.309" y1="16.111" x2="84.309" y2="42.924" id="h" xlink:href="#c" gradientUnits="userSpaceOnUse" gradientTransform="matrix(.33333 0 0 .3415 -17.086 -.604)"/><linearGradient id="d"><stop offset="0" stop-color="#0a0a0a" stop-opacity=".498"/><stop offset="1" stop-color="#0a0a0a" stop-opacity="0"/></linearGradient><linearGradient x1="76.041" y1="49.372" x2="76.041" y2="35.431" id="i" xlink:href="#d" gradientUnits="userSpaceOnUse" gradientTransform="matrix(.38156 0 0 .32897 -18.242 .282)"/><linearGradient id="e"><stop offset="0" stop-color="#fff"/><stop offset=".01" stop-color="#fff" stop-opacity=".235"/><stop offset=".99" stop-color="#fff" stop-opacity=".157"/><stop offset="1" stop-color="#fff" stop-opacity=".392"/></linearGradient><linearGradient x1="11.35" y1=".667" x2="11.35" y2="8.172" id="j" xlink:href="#e" gradientUnits="userSpaceOnUse" gradientTransform="matrix(.8919 0 0 .94047 3.144 5.347)"/></defs><path d="M2.125 4.137C1.945 4.354 2 4.67 2 5v2c0 .554.223 1 .5 1s.5-.446.5-1V5h1.25c.415 0 .75-.223.75-.5S4.665 4 4.25 4h-1.5c-.198.017-.445-.08-.625.137zM7.75 4c-.415 0-.75.223-.75.5s.335.5.75.5h1.5c.415 0 .75-.223.75-.5S9.665 4 9.25 4zm5 0c-.415 0-.75.223-.75.5s.335.5.75.5h1.5c.415 0 .75-.223.75-.5s-.335-.5-.75-.5zm4.75 0a.5.5 0 0 0 0 1h.5v1.25c0 .415.223.75.5.75s.5-.335.5-.75c-.003-.574 0-1.203 0-1.75a.5.5 0 0 0-.5-.5zm1 5c-.277 0-.5 1-.5 1h1s-.223-1-.5-1zm-16 1c-.277 0-.5.335-.5.75v1.5c0 .415.223.75.5.75s.5-.335.5-.75v-1.5c0-.415-.223-.75-.5-.75zm16 4c-.277 0-.5.446-.5 1v2h-1.25c-.416 0-.75.223-.75.5s.335.5.75.5h1.5c.08 0 .146-.016.22-.03.012 0 .016.03.03.03.07 0 .128-.043.188-.094.186-.09.312-.24.312-.406a.33.33 0 0 0-.03-.125c.024-.12.03-.236.03-.375v-2c0-.554-.223-1-.5-1zm-16 1c-.277 0-.5.335-.5.75.003.574 0 1.203 0 1.75a.5.5 0 0 0 .5.5h1a.5.5 0 0 0 0-1H3v-1.25c0-.415-.223-.75-.5-.75zm5.25 2c-.415 0-.75.223-.75.5s.335.5.75.5h.5c.415 0 .75-.223.75-.5s-.335-.5-.75-.5zm4 0c-.415 0-.75.223-.75.5s.335.5.75.5h1.5c.415 0 .75-.223.75-.5s-.335-.5-.75-.5z" opacity=".3" fill="#fff"/><path d="M2.125 3.137C1.945 3.354 2 3.67 2 4v2c0 .554.223 1 .5 1s.5-.446.5-1V4h1.25c.415 0 .75-.223.75-.5S4.665 3 4.25 3h-1.5c-.198.017-.445-.08-.625.137zM7.75 3c-.415 0-.75.223-.75.5s.335.5.75.5h1.5c.415 0 .75-.223.75-.5S9.665 3 9.25 3zm5 0c-.415 0-.75.223-.75.5s.335.5.75.5h1.5c.415 0 .75-.223.75-.5s-.335-.5-.75-.5zm4.75 0a.5.5 0 0 0 0 1h.5v1.25c0 .415.223.75.5.75s.5-.335.5-.75c-.003-.574 0-1.203 0-1.75a.5.5 0 0 0-.5-.5zm1 5c-.277 0-.5 1-.5 1h1s-.223-1-.5-1zm-16 1c-.277 0-.5.335-.5.75v1.5c0 .415.223.75.5.75s.5-.335.5-.75v-1.5C3 9.335 2.777 9 2.5 9zm16 4c-.277 0-.5.446-.5 1v2h-1.25c-.416 0-.75.223-.75.5s.335.5.75.5h1.5c.08 0 .146-.016.22-.03.012 0 .016.03.03.03.07 0 .128-.043.188-.094.186-.09.312-.24.312-.406a.33.33 0 0 0-.03-.125c.024-.12.03-.236.03-.375v-2c0-.554-.223-1-.5-1zm-16 1c-.277 0-.5.335-.5.75.003.574 0 1.203 0 1.75a.5.5 0 0 0 .5.5h1a.5.5 0 0 0 0-1H3v-1.25c0-.415-.223-.75-.5-.75zm5.25 2c-.415 0-.75.223-.75.5s.335.5.75.5h.5c.415 0 .75-.223.75-.5s-.335-.5-.75-.5zm4 0c-.415 0-.75.223-.75.5s.335.5.75.5h1.5c.415 0 .75-.223.75-.5s-.335-.5-.75-.5z" opacity=".5"/><g color="#000"><path d="M2.023 1.977v1h-1v4h14v-4h-7v-1h-6z" fill="url(#f)" overflow="visible" transform="translate(6 6.996)"/><path d="M1.78 1a.76.76 0 0 0-.75.75v.22H.78a.76.76 0 0 0-.75.75V4h1V2.97h1V2h6v.97h7V4h1V2.72a.76.76 0 0 0-.75-.75H9.03v-.22A.76.76 0 0 0 8.28 1h-6.5z" style="text-indent:0;text-align:start;line-height:normal;text-transform:none;block-progression:tb;-inkscape-font-specification:Sans" font-weight="400" opacity=".8" fill="url(#g)" overflow="visible" font-family="Sans" transform="translate(6 6.996)"/><path d="M.56 4.453c.757 0 14.4.032 14.987.032 0 .62-.03 10.01-.063 10.01-5.26.017-13.452-.014-14.984-.014 0-1.16.06-7.62.06-10.02z" fill="url(#h)" overflow="visible" transform="translate(6 6.996)"/><path d="M.087 3.977c.805 0 15.312.034 15.936.034 0 .68-.03 10.96-.066 10.96-5.593.02-14.305-.01-15.934-.01 0-1.28.064-8.35.064-10.98z" opacity=".4" fill="url(#i)" overflow="visible" transform="translate(6 6.996)"/><path d="M1.575 5.477c.654 0 12.44.025 12.948.025 0 .492-.024 7.97-.054 7.97-4.55.015-11.63-.01-12.95-.01 0-.93.05-6.072.05-7.985z" opacity=".5" fill="none" stroke="url(#j)" stroke-linecap="round" overflow="visible" transform="translate(6 6.996)"/><path d="M6.406 10.965a.5.5 0 0 0-.343.5.5.5 0 0 0 0 .094C6.06 14 6 20.28 6 21.46a.5.5 0 0 0 .5.5c1.52 0 9.704.05 14.97.03h.03s-.002-.03 0-.03c.06-.04.437-.25.438-.25l.03-.125c.01-.037 0-.05 0-.063.003-.023.03-.017.032-.03.002-.028 0-.058 0-.095.002-.074-.002-.183 0-.313.004-.26-.004-.617 0-1.063.007-.89.026-2.1.03-3.31.013-2.422 0-4.9 0-5.22a.5.5 0 0 0-.5-.5c-.568 0-14.196-.03-14.968-.03a.5.5 0 0 0-.156 0zm.657 1c1.47.002 12.618.03 13.968.03 0 .637.02 2.528 0 4.72 0 1.212-.02 2.392-.03 3.28 0 .407.01.75 0 1-5.08.015-12.15-.028-14-.03.01-1.493.06-6.487.07-9z" style="text-indent:0;text-align:start;line-height:normal;text-transform:none;block-progression:tb;-inkscape-font-specification:Sans" font-weight="400" opacity=".3" overflow="visible" font-family="Sans"/></g></svg>
